Adwaita++-Light/panel/16/dropboxstatus-x.svg

<svg height="16" width="16" xmlns="http://www.w3.org/2000/svg">
  <path d="m4.4472656 1 .0019532.0039062-4.4414063 2.5039063 3.9921875 2.4785156-4 3.0175781 4.4492188 2.4960938 3.5507812-2.4902344-4-3.0097656 4-2.4921875 4 2.5058594-1.736328 1.3007812a5 5 0 0 1 1.736328-.3144531 5 5 0 0 1 1.792969.3378906l-1.792969-1.3417968 3.990234-2.4902344-4.439453-2.5058594-3.550781 2.4921875zm7.5527344 7c-2.209 0-4 1.7909998-4 4 0 2.209 1.791 4 4 4s4-1.791 4-4c0-2.2090002-1.791-4-4-4zm3.970703.9667969a5 5 0 0 1 .019531.0292969l.009766-.0058594zm-5.613281.6660156-.003906.0136719 1.646484 1.6464846 1.646484-1.6464846.707032.7070316-1.646485 1.646484 1.646485 1.646484-.707032.707032-1.642578-1.660157-1.646484 1.646485-.7070314-.707032 1.6464844-1.646484-1.6464844-1.646484zm-3.1445314.9296875-2.7636718 1.939453-.8886719-.498047v.371094l4.4394531 2.625.0058594-.001953a5 5 0 0 1 -1.0058594-2.998047 5 5 0 0 1 .2128906-1.4375z" fill="#444"/>
</svg>

<svg xmlns="http://www.w3.org/2000/svg" width="16" height="16" version="1.1">
 <defs>
  <style id="current-color-scheme" type="text/css">
   .ColorScheme-Text { color:#444444; } .ColorScheme-Highlight { color:#4285f4; }
  </style>
 </defs>
 <path style="fill:currentColor" class="ColorScheme-Text" d="M 4.4472656 1 L 4.4492188 1.0039062 L 0.0078125 3.5078125 L 4 5.9863281 L 0 9.0039062 L 4.4492188 11.5 L 8 9.0097656 L 4 6 L 8 3.5078125 L 12 6.0136719 L 10.263672 7.3144531 A 5 5 0 0 1 12 7 A 5 5 0 0 1 13.792969 7.3378906 L 12 5.9960938 L 15.990234 3.5058594 L 11.550781 1 L 8 3.4921875 L 4.4472656 1 z M 12 8 C 9.791 8 8 9.7909998 8 12 C 8 14.209 9.791 16 12 16 C 14.209 16 16 14.209 16 12 C 16 9.7909998 14.209 8 12 8 z M 15.970703 8.9667969 A 5 5 0 0 1 15.990234 8.9960938 L 16 8.9902344 L 15.970703 8.9667969 z M 10.357422 9.6328125 L 10.353516 9.6464844 L 12 11.292969 L 13.646484 9.6464844 L 14.353516 10.353516 L 12.707031 12 L 14.353516 13.646484 L 13.646484 14.353516 L 12.003906 12.693359 L 10.357422 14.339844 L 9.6503906 13.632812 L 11.296875 11.986328 L 9.6503906 10.339844 L 10.357422 9.6328125 z M 7.2128906 10.5625 L 4.4492188 12.501953 L 3.5605469 12.003906 L 3.5605469 12.375 L 8 15 L 8.0058594 14.998047 A 5 5 0 0 1 7 12 A 5 5 0 0 1 7.2128906 10.5625 z"/>
</svg>
